miscellanea/post-modern-icons/src/post-modern/20x20/mode/tm_color.svg

<?xml version="1.0" encoding="UTF-8" standalone="no"?>
<svg
   xmlns:dc="http://purl.org/dc/elements/1.1/"
   xmlns:cc="http://creativecommons.org/ns#"
   xmlns:rdf="http://www.w3.org/1999/02/22-rdf-syntax-ns#"
   xmlns:svg="http://www.w3.org/2000/svg"
   xmlns="http://www.w3.org/2000/svg"
   xmlns:sodipodi="http://sodipodi.sourceforge.net/DTD/sodipodi-0.dtd"
   xmlns:inkscape="http://www.inkscape.org/namespaces/inkscape"
   width="24"
   height="24"
   viewBox="0 0 24 24"
   fill="none"
   version="1.1"
   id="svg14095"
   sodipodi:docname="tm_color.svg"
   inkscape:export-filename="/Users/mgubi/t/devel/qt6/TeXmacs/misc/pixmaps/modern/20x20/mode/tm_color_x4.png"
   inkscape:export-xdpi="384"
   inkscape:export-ydpi="384"
   inkscape:version="1.0.2 (e86c870879, 2021-01-15)">
  <metadata
     id="metadata14101">
    <rdf:RDF>
      <cc:Work
         rdf:about="">
        <dc:format>image/svg+xml</dc:format>
        <dc:type
           rdf:resource="http://purl.org/dc/dcmitype/StillImage" />
        <dc:title />
      </cc:Work>
    </rdf:RDF>
  </metadata>
  <defs
     id="defs14099" />
  <sodipodi:namedview
     pagecolor="#ffffff"
     bordercolor="#666666"
     borderopacity="1"
     objecttolerance="10"
     gridtolerance="10"
     guidetolerance="10"
     inkscape:pageopacity="0"
     inkscape:pageshadow="2"
     inkscape:window-width="1080"
     inkscape:window-height="1883"
     id="namedview14097"
     showgrid="false"
     inkscape:zoom="4.9276504"
     inkscape:cx="-15.508746"
     inkscape:cy="93.739459"
     inkscape:window-x="0"
     inkscape:window-y="0"
     inkscape:window-maximized="1"
     inkscape:current-layer="svg14095"
     inkscape:document-rotation="0" />
  <path
     d="M 6.99,21 H 19 c 1.1046,0 2,-0.8954 2,-2 v -4 c 0,-1.1046 -0.8954,-2 -2,-2 H 16.6569 M 11,7.34312 12.6569,5.68629 c 0.781,-0.78105 2.0473,-0.78105 2.8284,0 l 2.8284,2.82843 c 0.7811,0.78105 0.7811,2.04738 0,2.82838 l -8.48527,8.4853"
     stroke="#4a5568"
     stroke-width="2"
     stroke-linecap="round"
     stroke-linejoin="round"
     id="path14093-0"
     sodipodi:nodetypes="cssssccccccc"
     style="stroke-width:1.5;stroke-miterlimit:4;stroke-dasharray:none" />
  <path
     d="m 6.99,21 c -2.20914,0 -4,-1.7909 -4,-4 V 5 c 0,-1.10457 0.89543,-2 2,-2 h 4 c 1.1046,0 2,0.89543 2,2 v 12 c 0,2.2091 -1.79086,4 -4,4 z m 0,-4 H 7"
     stroke="#4a5568"
     stroke-width="2"
     stroke-linecap="round"
     stroke-linejoin="round"
     id="path14093-3"
     sodipodi:nodetypes="sssssssscc"
     style="stroke:#0000c0;stroke-width:1.5;stroke-miterlimit:4;stroke-dasharray:none;stroke-opacity:1" />
</svg>

<?xml version="1.0" encoding="UTF-8" standalone="no"?>
<svg
   xmlns:dc="http://purl.org/dc/elements/1.1/"
   xmlns:cc="http://creativecommons.org/ns#"
   xmlns:rdf="http://www.w3.org/1999/02/22-rdf-syntax-ns#"
   xmlns:svg="http://www.w3.org/2000/svg"
   xmlns="http://www.w3.org/2000/svg"
   xmlns:sodipodi="http://sodipodi.sourceforge.net/DTD/sodipodi-0.dtd"
   xmlns:inkscape="http://www.inkscape.org/namespaces/inkscape"
   width="24"
   height="24"
   viewBox="0 0 24 24"
   fill="none"
   version="1.1"
   id="svg14095"
   sodipodi:docname="tm_color.svg"
   inkscape:export-filename="/Users/mgubi/t/devel/qt6/TeXmacs/misc/pixmaps/modern/20x20/mode/tm_color_x4.png"
   inkscape:export-xdpi="384"
   inkscape:export-ydpi="384"
   inkscape:version="1.0.2 (e86c8708, 2021-01-15)">
  <metadata
     id="metadata14101">
    <rdf:RDF>
      <cc:Work
         rdf:about="">
        <dc:format>image/svg+xml</dc:format>
        <dc:type
           rdf:resource="http://purl.org/dc/dcmitype/StillImage" />
        <dc:title></dc:title>
      </cc:Work>
    </rdf:RDF>
  </metadata>
  <defs
     id="defs14099" />
  <sodipodi:namedview
     pagecolor="#ffffff"
     bordercolor="#666666"
     borderopacity="1"
     objecttolerance="10"
     gridtolerance="10"
     guidetolerance="10"
     inkscape:pageopacity="0"
     inkscape:pageshadow="2"
     inkscape:window-width="1107"
     inkscape:window-height="855"
     id="namedview14097"
     showgrid="false"
     inkscape:zoom="27.875"
     inkscape:cx="12"
     inkscape:cy="12"
     inkscape:window-x="0"
     inkscape:window-y="23"
     inkscape:window-maximized="0"
     inkscape:current-layer="svg14095" />
  <path
     d="M7 21C4.79086 21 3 19.2091 3 17V5C3 3.89543 3.89543 3 5 3H9C10.1046 3 11 3.89543 11 5V17C11 19.2091 9.20914 21 7 21ZM7 21H19C20.1046 21 21 20.1046 21 19V15C21 13.8954 20.1046 13 19 13H16.6569M11 7.34312L12.6569 5.68629C13.4379 4.90524 14.7042 4.90524 15.4853 5.68629L18.3137 8.51472C19.0948 9.29577 19.0948 10.5621 18.3137 11.3431L9.82843 19.8284M7 17H7.01"
     stroke="#4A5568"
     stroke-width="2"
     stroke-linecap="round"
     stroke-linejoin="round"
     id="path14093" />
</svg>
